X: 35
T:Ca' the E
R:
M:3/4
L:1/4
K:D
[|E2F|B3|A2F|A3|F2E|D2d|cd2|
e3|f2B|B2A|Ad2|F3|E3|FA2|B3|B3|]
